public/ember-cli-visualeditor/styles/themes/apex/images/icons/italic-e.svg

<?xml version="1.0" encoding="utf-8"?>
<svg xmlns="http://www.w3.org/2000/svg" width="24" height="24" viewBox="0 0 24 24">
    <g id="italic-e">
        <path id="e" d="M7 18l2.474-12h8.526l-.282 1.367h-6.947l-.75 3.633h6.09l-.282 1.367h-6.09l-.877 4.274h7.438l-.282 1.359h-9.018"/>
    </g>
</svg>

<?xml version="1.0" encoding="utf-8"?>
<svg xmlns="http://www.w3.org/2000/svg" width="24" height="24" viewBox="0 0 24 24">
    <g id="italic-e">
        <path id="e" d="M7 18L9.474 6H18l-.282 1.367H10.77L10.02 11h6.09l-.28 1.367H9.74L8.86 16.64H16.3L16.018 18H7"/>
    </g>
</svg>
